Newaita/actions/22/dialog-ok-apply.svg

<svg height="22" viewBox="0 0 22 22" width="22" xmlns="http://www.w3.org/2000/svg"><path d="m18.324219 2.996094c-.175781-.003906-.339844.085937-.429688.238281l-7.539062 13.222656-6.726563-6.726562c-.183594-.183594-.480468-.183594-.664062 0l-.683594.683593c-.183594.183594-.183594.480469 0 .664063l8.074219 8.074219c.21875.21875.585937.171875.742187-.101563l8.46875-14.835937c.128906-.222656.054688-.507813-.164062-.636719l-.855469-.511719c-.066406-.042968-.144531-.066406-.222656-.070312zm0 0" fill="#424242"/></svg>

<?xml version="1.0" encoding="UTF-8"?>
<svg xmlns="http://www.w3.org/2000/svg" xmlns:xlink="http://www.w3.org/1999/xlink" width="22px" height="22px" viewBox="0 0 22 22" version="1.1">
<g id="surface1">
<path style=" stroke:none;fill-rule:nonzero;fill:rgb(25.882354%,25.882354%,25.882354%);fill-opacity:1;" d="M 18.324219 2.996094 C 18.148438 2.992188 17.984375 3.082031 17.894531 3.234375 L 10.355469 16.457031 L 3.628906 9.730469 C 3.445312 9.546875 3.148438 9.546875 2.964844 9.730469 L 2.28125 10.414062 C 2.097656 10.597656 2.097656 10.894531 2.28125 11.078125 L 10.355469 19.152344 C 10.574219 19.371094 10.941406 19.324219 11.097656 19.050781 L 19.566406 4.214844 C 19.695312 3.992188 19.621094 3.707031 19.402344 3.578125 L 18.546875 3.066406 C 18.480469 3.023438 18.402344 3 18.324219 2.996094 Z M 18.324219 2.996094 "/>
</g>
</svg>
